X:1
T: The Wee Pickle Tow
C:
R:Jig
Q:180
K:A
M:6/8
L:1/16
|:E2|E2F2G2 A2B2c2|e2a2c2 B4e2|c2A2B2 c2d2B2|c2A2A2 A4F2|
E2F2G2 A2B2c2|e2a2c2 B4e2|c2A2B2 c2d2B2|c2A2A2 A4:|
|:a2|f2g2a2 e2f2g2|f2g2a2 f2e2c2|e2f2e2 e2f2g2|a2e2c2 c2B2A2|
d2c2d2 e2f2g2|a2e2c2 B4e2|c2A2B2 c2d2B2|c2A2A2 A4:|
